X:528
T:Doberman's Wallet, The
R:jig
C:Frankie Gavin
Z:id:hn-jig-528
M:6/8
L:1/8
K:D
A2F EDE | FDD DFA | ded B2A | FEE EFG |
A2F EDE | FDD DFA | ded B2A |1 FDD D2B :|2 FDD DFA ||
ded cBA | Bcd e2d | cAA BAB | cAA ABc |
ded cBA | Bcd edB | A2F EDE | FDD DFA |
ded cBA | Bcd e2d | cAA BAB | cAA A2e |
fed cBA | Bcd AGF | GAB ABc | dAF EFG ||

